X:1
T:SANDY BUCHANAN'S -- STRATHSPEY
M:C
L:1/8
R:Strathspey
S:Ryan’s Mammoth Collection (1883)
Z:AK/Fiddler’s Companion
K:A Minor
(E<A) (A>.G) (E<G) (G>.A) | (c>.d)(e>.d) (c<A) (A>.c) |\
(E<A) (A>.G) (E<G) g2 | "SEGUE"e>cd>e c2 [E2c2] |
(E<A)A>G (E<G)G>A | c>de>d (c<A)A>c |\
(E<A)A>G (E<G) g2 | e>cd>e c2 [E2c2] |]
(e<g) g2 (e<a) a2 | (e>.d)(c>.e) "SEGUE"d>B G2 |\
(e<g)g2 (e<a)a2 | e>cd>e c2 [E2c2] |
(e<g)g2 (e<a)a2 | e>dc>e d>cA>G |\
(E<A)A>G (E<G)g2 | e>cd>e c2 [E2c2] |]
